!!!COM: Aaron Copland
!!!OTL: [T725_Cop-w43p37-39m207-219]
**kern	**dynam	**kern	**dynam	**kern	**dynam	**kern	**dynam	**kern	**dynam	**kern	**dynam	**kern	**dynam	**kern	**dynam	**kern	**dynam	**kern	**dynam	**kern	**dynam	**kern	**dynam	**kern	**dynam
*grp:A	*grp:A	*grp:B	*grp:B	*grp:B	*grp:B	*grp:B	*grp:B	*grp:B	*grp:B	*grp:B	*grp:B	*grp:B	*grp:B	*grp:B	*grp:B	*grp:A	*grp:A	*grp:B	*grp:B	*grp:B	*grp:B	*grp:A	*grp:A	*grp:B	*grp:B
*part13	*part13	*part12	*part12	*part11	*part11	*part10	*part10	*part9	*part9	*part8	*part8	*part7	*part7	*part6	*part6	*part5	*part5	*part4	*part4	*part3	*part3	*part2	*part2	*part1	*part1
*staff13	*	*staff12	*	*staff11	*	*staff10	*	*staff9	*	*staff8	*	*staff7	*	*staff6	*	*staff5	*	*staff4	*	*staff3	*	*staff2	*	*staff1	*
*I"Contrabass	*	*I"Violoncello	*	*I"Viola	*	*I"Violin II	*	*I"Violin I	*	*I"Violin I	*	*I"Violin I	*	*I"Violin I	*	*I"Violin Solo	*	*I"Vibraphone	*	*I"Oboe 1	*	*I"Flute 1. 2.	*	*I"Piccolo	*
*I'Cb.	*	*I'Vc.	*	*I'Vla.	*	*I'Vln. II	*	*I'Vln. I	*	*I'Vln. I	*	*I'Vln. I	*	*I'Vln. I	*	*I'Vln.	*	*I'Vib.	*	*I'Ob.	*	*I'Fl.	*	*I'Picc.	*
*clefF4	*	*clefF4	*	*clefC3	*	*clefG2	*	*clefG2	*	*clefG2	*	*clefG2	*	*clefG2	*	*clefG2	*	*clefG2	*	*clefG2	*	*clefG2	*	*clefG2	*
*ITrd7c12	*	*	*	*	*	*	*	*	*	*	*	*	*	*	*	*	*	*	*	*	*	*	*	*ITrd-7c-12	*
*k[]	*	*k[]	*	*k[]	*	*k[]	*	*k[]	*	*k[]	*	*k[]	*	*k[]	*	*k[]	*	*k[]	*	*k[]	*	*k[]	*	*k[]	*
*C:	*	*C:	*	*C:	*	*C:	*	*C:	*	*C:	*	*C:	*	*C:	*	*C:	*	*C:	*	*C:	*	*C:	*	*C:	*
*M4/4	*	*M4/4	*	*M4/4	*	*M4/4	*	*M4/4	*	*M4/4	*	*M4/4	*	*M4/4	*	*M4/4	*	*M4/4	*	*M4/4	*	*M4/4	*	*M4/4	*
*met(c)	*	*met(c)	*	*met(c)	*	*met(c)	*	*met(c)	*	*met(c)	*	*met(c)	*	*met(c)	*	*met(c)	*	*met(c)	*	*met(c)	*	*met(c)	*	*met(c)	*
*MM69	*	*MM69	*	*MM69	*	*MM69	*	*MM69	*	*MM69	*	*MM69	*	*MM69	*	*MM69	*	*MM69	*	*MM69	*	*MM69	*	*MM69	*
=207	=207	=207	=207	=207	=207	=207	=207	=207	=207	=207	=207	=207	=207	=207	=207	=207	=207	=207	=207	=207	=207	=207	=207	=207	=207
!!LO:TX:a:t=Slightly slower ([quarter]=69)
!	!	!LO:TX:a:t=[sord.] Tutti div.	!	!LO:TX:a:t=[sord.] div.	!	!LO:TX:a:t=[sord.] div.	!	!	!	!LO:TX:a:t=(2nd) half	!LO:DY:ed=brack	!	!	!	!	!	!	!	!	!LO:TX:t=P:problem:hanging slur (in addition to hanging tie)	!LO:DY:ed=brack	!	!	!	!
1r	.	2.F#X~u [2.d	mp	2.fi~u [2.b-X	mp	2.g~u [2.ee-X	mp	1r	.	8ee-Xi]	p	4r	.	4r	.	1r	.	4r	.	4.ee-Xi])	mp >	1r	.	4r	.
.	.	.	.	.	.	.	.	.	.	8r	.	.	.	.	.	.	.	.	.	.	.	.	.	.	.
!	!	!	!	!	!	!	!	!	!	!	!	!LO:TX:a:t=[(1st) half div.]	!	!LO:TX:a:t= [(1st) half div.]	!	!	!	!	!	!	!	!	!	!	!
!	!	!	!	!	!	!	!	!	!	!	!	!LO:TX:a:t=sord.	!	!LO:TX:a:t=sord.	!	!	!	!	!	!	!	!	!	!	!
.	.	.	.	.	.	.	.	.	.	4r	.	8r	.	8r	.	.	.	8r	.	.	.	.	.	8r	.
!	!	!	!	!	!	!	!	!	!	!	!	!LO:TX:t=P:problem:artifical harmonics	!	!LO:TX:t=P:problem:artifical harmonics and dotted slurs	!	!	!	!	!	!	!	!	!	!	!
!	!	!	!	!	!	!	!	!	!	!	!	!LO:T:n=2:dot	!	!LO:T:n=2:dot	!	!	!	!LO:TX:a:t=with Ped.(Motor on-low)	!	!	!	!	!	!	!
!	!	!	!	!	!	!	!	!	!	!	!	!LO:N:head=dia	!	!	!	!	!	!	!LO:DY:t=sempre %s (delicate sonority)	!	!	!	!	!	!LO:DY:t= %s  thin tone
.	.	.	.	.	.	.	.	.	.	.	.	[8cc [8ff	p	[8ccc [8fff	p	.	.	[8cc [8ccc	p	8r	]	.	.	[8cccc	p
!	!	!	!	!	!	!	!	!	!	!	!	!LO:T:n=2:dot	!	!LO:T:n=2:dot	!	!	!	!	!	!	!	!	!	!	!
.	.	.	.	.	.	.	.	.	.	2r	.	[2cc_] [2ff]	.	[2ccc_] [2fff]	.	.	.	2cc_ 2ccc_	.	2r	.	.	.	2cccc]	.
.	.	4F#~ 4d]	.	4f~ 4b-]	.	4g~ 4ee-]	.	.	.	.	.	.	.	.	.	.	.	.	.	.	.	.	.	.	.
=208	=208	=208	=208	=208	=208	=208	=208	=208	=208	=208	=208	=208	=208	=208	=208	=208	=208	=208	=208	=208	=208	=208	=208	=208	=208
*M3/4	*	*M3/4	*	*M3/4	*	*M3/4	*	*M3/4	*	*M3/4	*	*M3/4	*	*M3/4	*	*M3/4	*	*M3/4	*	*M3/4	*	*M3/4	*	*M3/4	*
4%3r	.	2C#X~ [2A	.	[2G#X~ 2e	.	[2en~ 2b	.	4%3r	.	4%3r	.	8cc] 8ff]	.	8ccc] 8fff]	.	4%3r	.	8cc] 8ccc]	.	4%3r	.	4%3r	.	4r	.
.	.	.	.	.	.	.	.	.	.	.	.	8r	.	8r	.	.	.	8r	.	.	.	.	.	.	.
!	!	!	!	!	!	!	!	!	!	!	!	!LO:T:n=2:dot	!	!LO:T:n=2:dot	!	!	!	!	!	!	!	!	!	!	!
.	.	.	.	.	.	.	.	.	.	.	.	[2cc [2ff	.	[2ccc [2fff	.	.	.	[2cc [2ccc	.	.	.	.	.	2cccc	.
.	.	4C#~ 4A]	.	4G#~] 4e	.	4e~] 4b	.	.	.	.	.	.	.	.	.	.	.	.	.	.	.	.	.	.	.
=209	=209	=209	=209	=209	=209	=209	=209	=209	=209	=209	=209	=209	=209	=209	=209	=209	=209	=209	=209	=209	=209	=209	=209	=209	=209
*M4/4	*	*M4/4	*	*M4/4	*	*M4/4	*	*M4/4	*	*M4/4	*	*M4/4	*	*M4/4	*	*M4/4	*	*M4/4	*	*M4/4	*	*M4/4	*	*M4/4	*
*met(c)	*	*met(c)	*	*met(c)	*	*met(c)	*	*met(c)	*	*met(c)	*	*met(c)	*	*met(c)	*	*met(c)	*	*met(c)	*	*met(c)	*	*met(c)	*	*met(c)	*
!	!	!	!	!LO:TX:t=P:problem:there should be two harmonics markings aligned vertically	!	!	!	!	!	!	!	!	!	!	!	!	!	!	!	!	!	!	!	!	!
1r	.	2.A#X~ [2.d	>	2.do~ [2.ao	>	2.cc#X~ [2.ff	>	1r	.	1r	.	4.cc] 4.ff]	.	4.ccc] 4.fff]	.	2r	.	4.cc] 4.ccc]	.	1r	.	1r	.	4r	.
.	.	.	.	.	.	.	.	.	.	.	.	.	.	.	.	.	.	.	.	.	.	.	.	8r	.
!	!	!	!	!	!	!	!	!	!	!	!	!LO:T:n=2:dot	!	!LO:T:n=2:dot	!	!	!	!	!	!	!	!	!	!	!
.	.	.	.	.	.	.	.	.	.	.	.	[8cc [8ff	.	[8ccc [8fff	.	.	.	[8cc [8ccc	.	.	.	.	.	[8cccc	.
!	!	!	!	!	!	!	!	!	!	!	!	!LO:T:n=2:dot	!	!LO:T:n=2:dot	!	!	!LO:DY:t= %s dolce	!	!	!	!	!	!	!	!
.	.	.	.	.	.	.	.	.	.	.	.	[2cc_] [2ff]	.	[2ccc_] [2fff]	.	4r	mp	2cc_ 2ccc_	.	.	.	.	.	2cccc]	.
.	.	4A#~ 4d]	]	4do~ 4ao]	]	4cc#~ 4ff]	]	.	.	.	.	.	.	.	.	(4ggg#Xu	.	.	.	.	.	.	.	.	.
!!LO:REH:t=210
=210	=210	=210	=210	=210	=210	=210	=210	=210	=210	=210	=210	=210	=210	=210	=210	=210	=210	=210	=210	=210	=210	=210	=210	=210	=210
*M3/4	*	*M3/4	*	*M3/4	*	*M3/4	*	*M3/4	*	*M3/4	*	*M3/4	*	*M3/4	*	*M3/4	*	*M3/4	*	*M3/4	*	*M3/4	*	*M3/4	*
!	!	!	!	!	!	!	!	!	!	!	!	!	!	!LO:T:n=2:dot	!	!	!	!	!	!	!	!	!	!	!
4%3r	.	2G#X~ [2e	pp	2e~ [2gi	pp	2dd#X~ [2bb	pp	4%3r	.	4%3r	.	4cc] 4ff]	.	4ccc] 4fff]	.	4fff#X)	.	4cc] 4ccc]	.	4%3r	.	4%3r	.	4r	.
!	!	!	!	!	!	!	!	!	!	!	!	!LO:T:n=2:dot	!	!LO:T:n=2:dot	!	!	!	!	!	!	!	!	!	!	!
.	.	.	.	.	.	.	.	.	.	.	.	[2cc [2ff	.	[2ccc [2fff	.	2eee	.	[2cc [2ccc	.	.	.	.	.	2cccc	.
.	.	4G#~ 4e]	.	4e~ 4g]	.	4dd#~ 4bb]	.	.	.	.	.	.	.	.	.	.	.	.	.	.	.	.	.	.	.
*	*	*clefC4	*	*	*	*	*	*	*	*	*	*	*	*	*	*	*	*	*	*	*	*	*	*	*
=211	=211	=211	=211	=211	=211	=211	=211	=211	=211	=211	=211	=211	=211	=211	=211	=211	=211	=211	=211	=211	=211	=211	=211	=211	=211
!	!	!	!	!	!	!	!	!	!	!	!	!LO:TX:a:t=(1st) half div.	!	!LO:TX:a:t=(1st) half div.	!	!	!	!	!	!	!	!	!	!	!
4%3r	.	2d#X~ [2cc#X	.	2b~ [2dd	.	2aa#X~ [2fff#	.	4%3r	.	4%3r	.	4cc] 4ff]	.	4ccc] 4fff]	.	(4.fffn	.	4cc] 4ccc]	.	4%3r	.	4%3r	.	4r	.
!	!	!	!	!	!	!	!	!	!	!	!	!LO:T:n=2:dot	!	!LO:T:n=2:dot	!	!	!	!	!	!	!	!	!	!	!
.	.	.	.	.	.	.	.	.	.	.	.	[2cc [2ff	.	[2ccc [2fff	.	.	.	[2cc [2ccc	.	.	.	.	.	2cccc	.
.	.	.	.	.	.	.	.	.	.	.	.	.	.	.	.	4.aai)	.	.	.	.	.	.	.	.	.
.	.	4d#~ 4cc#]	.	4b~ 4dd]	.	4aa#~ 4fff#]	.	.	.	.	.	.	.	.	.	.	.	.	.	.	.	.	.	.	.
=212	=212	=212	=212	=212	=212	=212	=212	=212	=212	=212	=212	=212	=212	=212	=212	=212	=212	=212	=212	=212	=212	=212	=212	=212	=212
4%3r	.	2fn~ [2g#X	.	2f~ [2a	.	2gg~ni [2eee	.	4%3r	.	4%3r	.	4.cc] 4.ff]	.	4.ccc] 4.fff]	.	2.cc#X	.	4.cc] 4.ccc]	.	4%3r	.	4%3r	.	4r	.
.	.	.	.	.	.	.	.	.	.	.	.	.	.	.	.	.	.	.	.	.	.	.	.	8r	.
!	!	!	!	!	!	!	!	!	!	!	!	!LO:T:n=2:dot	!	!LO:T:n=2:dot	!	!	!	!	!	!	!	!	!	!	!
.	.	.	.	.	.	.	.	.	.	.	.	[4.cc [4.ff	.	[4.ccc [4.fff	.	.	.	[4.cc [4.ccc	.	.	.	.	.	4.cccc	.
.	.	4f~ 4g#]	.	4f~ 4a]	.	4gg~ 4eee]	.	.	.	.	.	.	.	.	.	.	.	.	.	.	.	.	.	.	.
!!pagebreak:original
=213	=213	=213	=213	=213	=213	=213	=213	=213	=213	=213	=213	=213	=213	=213	=213	=213	=213	=213	=213	=213	=213	=213	=213	=213	=213
!	!	!LO:TX:a:t=half	!	!LO:TX:a:t=half	!	!LO:TX:a:t=half	!	!	!	!LO:TX:a:t=half sord.	!	!	!	!	!	!LO:TX:a:t=always softer	!	!	!	!	!	!	!	!LO:TX:a:t=always softer	!
4%3r	.	[2f#X~	p	[2dd~o	p	[2ffn~	p	4%3r	.	[2bb-X~	p	4cc] 4ff]	.	4ccc] 4fff]	.	4%3r	.	4cc] 4ccc]	.	4%3r	.	4%3r	.	4r	.
!	!	!	!	!	!	!	!	!	!	!	!	!LO:T:n=2:dot	!	!LO:T:n=2:dot	!	!	!	!	!	!	!	!	!	!	!
.	.	.	.	.	.	.	.	.	.	.	.	[2cc [2ff	.	[2ccc [2fff	.	.	.	[2cc [2ccc	.	.	.	.	.	2cccc	.
.	.	4f#~]	.	4dd~o]	.	4ff~]	.	.	.	4bb-~]	.	.	.	.	.	.	.	.	.	.	.	.	.	.	.
=214	=214	=214	=214	=214	=214	=214	=214	=214	=214	=214	=214	=214	=214	=214	=214	=214	=214	=214	=214	=214	=214	=214	=214	=214	=214
4%3r	.	[2ao~	.	[2cc#X~	.	[2gg#X~	.	4%3r	.	[2bbn~	.	8cc] 8ff]	.	8ccc] 8fff]	.	4r	.	8cc] 8ccc]	.	4%3r	.	4%3r	.	8r	.
!	!	!	!	!	!	!	!	!	!	!	!	!LO:T:n=2:dot	!	!LO:T:n=2:dot	!	!	!	!	!	!	!	!	!	!	!
.	.	.	.	.	.	.	.	.	.	.	.	[4.cc [4.ff	.	[4.ccc [4.fff	.	.	.	[4.cc [4.ccc	.	.	.	.	.	4.cccc	.
.	.	.	.	.	.	.	.	.	.	.	.	.	.	.	.	4r	.	.	.	.	.	.	.	.	.
.	.	4ao~]	.	4cc#~]	.	4gg#~]	.	.	.	4bb~]	.	8ccL] 8ff]	.	8cccL] 8fff]	.	(4eeeu	.	8ccL] 8ccc]	.	.	.	.	.	8r	.
!	!	!	!	!	!	!	!	!	!	!	!	!LO:T:n=2:dot	!	!LO:T:n=2:dot	!	!	!	!	!	!	!	!	!	!	!
.	.	.	.	.	.	.	.	.	.	.	.	[8ccJ [8ff	.	[8cccJ [8fff	.	.	.	[8ccJ [8ccc	.	.	.	.	.	[8cccc	.
!!LO:REH:t=215
=215	=215	=215	=215	=215	=215	=215	=215	=215	=215	=215	=215	=215	=215	=215	=215	=215	=215	=215	=215	=215	=215	=215	=215	=215	=215
!	!	!LO:TX:a:t=quarter	!	!LO:TX:a:t=quarter	!	!LO:TX:a:t=quarter	!	!	!	!	!	!	!	!	!	!	!	!	!	!	!	!	!	!	!
4%3r	.	[2a#X~	.	[2dd~	.	[2aa~	.	4%3r	.	[2fff~	.	4cc] 4ff]	.	4ccc] 4fff]	.	4ddd)	.	4cc] 4ccc]	.	4%3r	.	4%3r	.	8cccc]	.
.	.	.	.	.	.	.	.	.	.	.	.	.	.	.	.	.	.	.	.	.	.	.	.	8r	.
!	!	!	!	!	!	!	!	!	!	!	!	!LO:T:n=2:dot	!	!LO:T:n=2:dot	!	!	!	!	!	!	!	!	!	!	!
.	.	.	.	.	.	.	.	.	.	.	.	[2cc [2ff	.	[2ccc [2fff	.	2ccc	.	[2cc [2ccc	.	.	.	.	.	2cccc	.
.	.	4a#~]	.	4dd~]	.	4aa~]	.	.	.	4fff~]	.	.	.	.	.	.	.	.	.	.	.	.	.	.	.
=216	=216	=216	=216	=216	=216	=216	=216	=216	=216	=216	=216	=216	=216	=216	=216	=216	=216	=216	=216	=216	=216	=216	=216	=216	=216
*	*	*	*	*	*	*	*	*	*	*8va	*	*	*	*	*	*	*	*	*	*	*	*	*	*	*
4r	.	[2g#X~	.	[2ee~	.	[2ddd#X~	.	4%3r	.	[2bbb~	.	4.cc] 4.ff]	.	4.ccc] 4.fff]	.	4ccc#X	.	4.cc] 4.ccc]	.	4%3r	.	4%3r	.	4r	.
!LO:TX:a:t=1. Solo (arco)	!LO:DY:t=%s  dolce legato	!	!	!	!	!	!	!	!	!	!	!	!	!	!	!	!	!	!	!	!	!	!	!	!
4r	mp	.	.	.	.	.	.	.	.	.	.	.	.	.	.	2ff	> ]	.	.	.	.	.	.	8r	.
!	!	!	!	!	!	!	!	!	!	!	!	!LO:T:n=2:dot	!	!LO:T:n=2:dot	!	!	!	!	!	!	!	!	!	!	!
.	.	.	.	.	.	.	.	.	.	.	.	[4.cc [4.ff	.	[4.ccc [4.fff	.	.	.	[4.cc [4.ccc	.	.	.	.	.	4.cccc	.
*	*	*	*	*	*	*	*	*	*	*	*	*	*	*	*	*	*	*	*	*	*	*	*	*	*
4GG#X	.	4g#~]	.	4ee~]	.	4ddd#~]	.	.	.	4bbb~]	.	.	.	.	.	.	.	.	.	.	.	.	.	.	.
=217	=217	=217	=217	=217	=217	=217	=217	=217	=217	=217	=217	=217	=217	=217	=217	=217	=217	=217	=217	=217	=217	=217	=217	=217	=217
*M4/4	*	*M4/4	*	*M4/4	*	*M4/4	*	*M4/4	*	*M4/4	*	*M4/4	*	*M4/4	*	*M4/4	*	*M4/4	*	*M4/4	*	*M4/4	*	*M4/4	*
*met(c)	*	*met(c)	*	*met(c)	*	*met(c)	*	*met(c)	*	*met(c)	*	*met(c)	*	*met(c)	*	*met(c)	*	*met(c)	*	*met(c)	*	*met(c)	*	*met(c)	*
*	*	*	*	*	*	*	*	*	*	*X8va	*	*	*	*	*	*	*	*	*	*	*	*	*	*	*
!	!	!LO:TX:a:t=2. Soli	!	!LO:TX:a:t=4. Soli div.	!	!LO:TX:a:t=4. Soli div.	!	!LO:TX:a:t=2. Soli	!	!LO:TX:a:t=2. Soli	!	!LO:TX:a:t=halfdiv.	!	!	!	!	!	!	!	!	!	!	!	!	!
4AA#X	.	2.d#Xu	pp	2.bu 2.ddni	pp	2.aa#Xu 2.fff#X	pp	2.cc#Xu 2.ff#X	pp	2.ff#Xu 2.bb	pp	2cc] 2ff]	.	2ccc] 2fff]	.	[1b	p	2cc] 2ccc]	.	1r	.	1r	.	2r	.
4BB#X	.	.	.	.	.	.	.	.	.	.	.	.	.	.	.	.	.	.	.	.	.	.	.	.	.
!	!	!	!	!	!	!	!	!	!	!	!	!LO:TX:a:t=2. Soli	!	!LO:TX:a:t=2. Soli	!	!	!	!	!	!	!	!	!	!	!
!	!	!	!	!	!	!	!	!	!	!	!	!LO:T:n=2:dot	!	!LO:T:n=2:dot	!	!	!	!	!	!	!	!	!	!	!
4C#X	.	.	.	.	.	.	.	.	.	.	.	[2cc [2ff	pp	[2ccc [2fff	pp	.	.	[2cc [2ccc	pp	.	.	.	.	2cccc	pp
!	!	!	!	!	!	!	!	!LO:T:n=2:dot	!	!LO:T:n=2:dot	!	!	!	!	!	!	!	!	!	!	!	!	!	!	!
4BB	.	[4d#v	.	[4bv [4dd	.	[4aa#v [4fff#	.	[4cc#v [4ff#	.	[4ff#v [4bb	.	.	.	.	.	.	.	.	.	.	.	.	.	.	.
*clefC4	*	*	*	*	*	*	*	*	*	*	*	*	*	*	*	*	*	*	*	*	*	*	*	*	*
=218	=218	=218	=218	=218	=218	=218	=218	=218	=218	=218	=218	=218	=218	=218	=218	=218	=218	=218	=218	=218	=218	=218	=218	=218	=
2Go	.	2.d#]	.	2.b] 2.dd]	.	2.aa#] 2.fff#]	.	2.cc#] 2.ff#]	.	2.ff#] 2.bb]	.	4.cc] 4.ff]	.	4.ccc] 4.fff]	.	1b_	.	4.cc] 4.ccc]	.	1r	.	1r	.	4r	.
.	.	.	.	.	.	.	.	.	.	.	.	.	.	.	.	.	.	.	.	.	.	.	.	8r	.
!LO:TX:t=P:problem:artifical harmonics	!	!	!	!	!	!	!	!	!	!	!	!LO:T:n=2:dot	!	!LO:T:n=2:dot	!	!	!	!	!	!	!	!	!	!	!
.	.	.	.	.	.	.	.	.	.	.	.	[8cc [8ff	ppp	[8ccc [8fff	ppp	.	.	[8cc [8ccc	ppp	.	.	.	.	[8cccc	ppp >
!LO:T:n=2:dot	!	!	!	!	!	!	!	!	!	!	!	!	!	!	!	!	!	!	!	!	!	!	!	!	!
[2G#X [2d#X	.	.	.	.	.	.	.	.	.	.	.	2cc] 2ff]	.	2ccc] 2fff]	.	.	.	[2cc] [2ccc]	.	.	.	.	.	2cccc]	.
!	!	!	!	!	!	!	!	!LO:T:n=2:dot	!	!LO:T:n=2:dot	!	!	!	!	!	!	!	!	!	!	!	!	!	!	!
.	.	[4d#Xu	ppp	[4bu [4dd	ppp	[4aa#Xu [4fff#X	ppp	[4cc#Xu [4ff#	ppp	[4ff#Xu [4bb	ppp	.	.	.	.	.	.	.	.	.	.	.	.	.	]
=219	=219	=219	=219	=219	=219	=219	=219	=219	=219	=219	=219	=219	=219	=219	=219	=219	=219	=219	=219	=219	=219	=219	=219	=219	=219
!LO:T:n=2:dot	!	!	!	!	!	!	!	!LO:T:n=2:dot	!	!LO:T:n=2:dot	!	!LO:T:n=2:dot	!	!LO:T:n=2:dot	!	!	!	!	!	!	!	!	!	!	!
[2.G#;_] [2.d#X]	>	2.d#;_	>	2.b;_ 2.dd_	>	2.aa#;_ 2.fff#_	>	[2.cc#;_] [2.ff#]	>	[2.ff#;_] [2.bb]	>	[2.cc; [2.ff	>	[2.ccc; [2.fff	>	2.b;_	>	[2.cc;] [2.ccc]	.	1r	.	2r;	.	1r	.
.	.	.	.	.	.	.	.	.	.	.	.	.	.	.	.	.	.	.	.	.	.	4r	.	.	.
!	!	!	!	!	!	!	!	!	!	!	!	!	!	!	!	!	!	!	!	!	!	!LO:TX:a:t=Solo	!LO:DY:t=%s freely [poetic]	!	!
8G#] 8d#]	]	8d#]	]	8b] 8dd]	]	8aa#] 8fff#]	]	8cc#] 8ff#]	]	8ff#] 8bb]	]	8cc] 8ff]	]	8ccc] 8fff]	]	8b]	]	8cc] 8ccc]	.	.	.	(8ff#XL	mp	.	.
8r	.	8r	.	8r	.	8r	.	8r	.	8r	.	8r	.	8r	.	8r	.	8r	.	.	.	8aa#XJ	.	.	.
!	!	!	!	!	!	!	!	!	!	!	!	!	!	!	!	!	!	!	!	!	!	!LO:TX:t=P:problem:hanging slur	!	!	!
=220	=	=	=	=	=	=	=	=	=	=	=	=	=	=	=	=	=	=	=	=	=	=	=	=	=
*-	*-	*-	*-	*-	*-	*-	*-	*-	*-	*-	*-	*-	*-	*-	*-	*-	*-	*-	*-	*-	*-	*-	*-	*-	*-
!!!system-decoration: [(s1,s2,s3)][(s4)][(s5,s6,s7,s8,s9,s10,s11,s12,s13)]
!!!RDF**kern: i = editorial accidental, paren
!!!EED:Jason Lee
!!!EEV:2021/09/15
